X:1110
T:Invercauld's Reel
P:Invercauld's Reel
C:Stewart's Coll. 1762
R:Strathspey (8x32)
B:RSCDS 11-10
Z:Anselm Lingnau <anselm@strathspey.org>
M:4/4
L:1/8
K:Am
A|"Dm"D<D E>G "Am"A>G E<G|"Dm"D<D "G"E>G "C"c3 e|\
  "G"d>B g>B "Am"A>G E<G|"Dm"D<D "Em"E>G "Am"A2 A A|
  "Dm"D<D E>G "Am"A>G E<G|"Dm"D<D "G"E>G "C"c3 e|\
  "G"d>B g>B "Am"A>G E<G|"Dm"D<D "Em"E>G "Am"A2 A||
B|"Am"c>A "G"B>G "Am"A>G "Em"E<B|"F"c>B c>d "C"e>f g<e|\
  "G"d>B g>B "Am"A>G E<G|"Dm"D<D "Em"E>G "Am"A2 A>B|
  "C"c>d "G"B<g "Am"A>G "Em"E<B|"F"c>B c>d "C"e>f g<e|\
  "G"d>g B<g "Am"A>G E<G|"Dm"D<D "Em"E>G "Am"A2 A|]
